X:1
T:Bakmes'n
C:Johansson
R:Polska
Z:Anton Teljebäck 2007-12-01
O:Lima, Dalarna
M:3/4
L:1/8
K:D
(.D&gt;.F) (.A&gt;.B) A&gt;G | (.F&gt;.A) (3BGB A2 | (.D&gt;.F) (.A&gt;.B) A&gt;G | (3FDF (3ECE D2 |
(.D&gt;.F) (.A&gt;.B) A&gt;G | (.F&gt;.A) (3BGB (.A&gt;.c) | d&gt;e (3fdf (.e&gt;.c) | d2 d4 :|
A/ | c&gt;d e2 e2 | e&gt;f g2 g2 | (3efg (g&lt;f) e&gt;d | (d&lt;c) e4 | A&gt;c e2 e2 | e&gt;f g2 g2 | (3efg (g&lt;f) e&gt;d | (d&lt;c) d4|
 A&gt;c e2 e2 | e&gt;f g2 g2 | (3efg (g&lt;f) e&gt;d | (d&lt;c) e4 | A&gt;c e2 e2 | e&gt;f g2 g2 | (3efg (g&lt;f) e&gt;d | (d&lt;c) d4|
